X: 1
T: Cup Of Tea, The
M: 4/4
L: 1/8
R: reel
K: Edor
|:BAGF GEEF|GEBE GEEA|BAGF GEEG|FDAD FDDA|
BAGF GEEF|GEBE GEEA|B2 BA GABc|dBAG FD D2:|
K:D
|:d2 eg fdec|d2 eg fB B2|d2 eg fdec|dBAG FD D2|
d2 eg fdec|dfaf g2 fg|afge fdec|dBAG FD D2:|
|:FAdA FABA|FAdA FEE2|FAdA FABc|dBAG FD D2|
FAdA FABA|FAde fee2|fdec dBAF|GBAG FD D2:|
